!!!COM: Bach, Johann Sebastian
!!!CDT: 1685/3//-1750/7/28/
!!!OTL@@DE: Jesu, meiner Seelen Wonne
!!!AGN: 4-Part Chorale
!!!SCT: BH 350
!!!SCT: BWV 360
**harm	**root	**kern	**kern	**kern	**kern
!	!	!bass	!tenor	!alto	!soprno
*	*Iorgan	*Iorgan	*Iorgan	*Iorgan	*Iorgan
*M4/4	*M4/4	*M4/4	*M4/4	*M4/4	*M4/4
*met(c)	*met(c)	*met(c)	*met(c)	*met(c)	*met(c)
*MM60	*MM60	*MM60	*MM60	*MM60	*MM60
*k[f#]	*k[f#]	*k[f#]	*k[f#]	*k[f#]	*k[f#]
*G:	*G:	*G:	*G:	*G:	*G:
*>[A,A,B]	*>[A,A,B]	*>[A,A,B]	*>[A,A,B]	*>[A,A,B]	*>[A,A,B]
*>A	*>A	*>A	*>A	*>A	*>A
=1-	=1-	=1-	=1-	=1-	=1-
I	4BB-	4G	4d	4g	4b
IVb	4EE-	4E	8G	4g	4cc
.	.	.	8A	.	.
iii	4DD	4BB	4B	4f#	4dd
vi7	4GG	4E	4B	8g	4dd
.	.	.	.	8f#	.
=2	=2	=2	=2	=2	=2
ii	4CC	4AA	4c	8e	4cc
.	.	.	.	8f#	.
I	4BB-	4GG	4d	4g	4b
V	4FF	4D	4d	4f#	4a
V;	4FF;	4D;	4d;	4f#;	4a;
=3	=3	=3	=3	=3	=3
I	4BB-	4GG	4d	4g	4b
ii	4CC	4AA	4c	8f#	4cc
.	.	.	.	8e	.
iii	4DD	4BB	8B	4d	4dd
.	.	.	8A	.	.
vi	4GG	8E	4G	4e	4b
.	.	8D	.	.	.
=4	=4	=4	=4	=4	=4
ii7b	4CC	4C	4G	4e	4.a
V	4FF	4D	4F#	4d	.
.	.	.	.	.	8a
I;	2BB-;	2GG;	2B;	2d;	2g;
=:|!	=:|!	=:|!	=:|!	=:|!	=:|!
*>B	*>B	*>B	*>B	*>B	*>B
=5	=5	=5	=5	=5	=5
V	4FF	4D	4d	4f#	4a
viiob/ii	4BB	4BB	4D	4g#	4b
ii	4CC	8AA	4E	4a	4cc
.	.	8BB	.	.	.
iib	4CC	8C	4A	4e	4cc
.	.	8D	.	.	.
=6	=6	=6	=6	=6	=6
V/ii	4GG	4E	8A	4e	4.b
.	.	.	8F#	.	.
V7/ii	4GG	4EE	4G#	8d	.
.	.	.	.	8c	8a
ii;	2CC;	2AA;	2E;	2c;	2a;
!!linebreak: 2
=7	=7	=7	=7	=7	=7
ii	4CC	4A	4A	4e	4cc
V7/IV	4BB-	8G	4B	4g	4dd
.	.	8F	.	.	.
IVb	4EE-	8E	4c	4g	4ee
.	.	8D	.	.	.
IV	4EE-	4C	4c	4g	4ee
=8	=8	=8	=8	=8	=8
V/IV	4BB-	4G	8c	4g	4dd
.	.	.	8A	.	.
V7/IV	4BB-	4GG	4B	8g	8.dd
.	.	.	.	8f	.
.	.	.	.	.	16cc
IV;	2EE-;	2C;	2G;	2e;	2cc;
=9	=9	=9	=9	=9	=9
vi	4GG	4E	4G	4e	4b
IV	4EE-	8D	4G	4e	4cc
.	.	8C	.	.	.
Vb/IV	4BB-	4BB	8G	4d	4dd
.	.	.	8F	.	.
IV	4EE-	4C	4E	4c	4g
=10	=10	=10	=10	=10	=10
V7b	4FF	4FF#	4A	4d	4cc
I	4BB-	4GG	4G	4d	4b
V	4FF	4D	4F#	4d	4a
V;	4FF;	4D;	4F#;	4d;	4a;
=11	=11	=11	=11	=11	=11
I	4BB-	4G	4G	4d	4b
IVb	4EE-	8F#	4G	4e	4cc
.	.	8E	.	.	.
V	4FF	8F#	4A	4d	4dd
.	.	8D	.	.	.
I	4BB-	4G	4G	4d	4b
=12	=12	=12	=12	=12	=12
ii7b	4CC	4C	4G	4e	4a
V	4FF	4D	4F#	4d	4a
I	4BB-	4GG	4B	4d	4g
I;	4BB-;	4GG;	4B;	4d;	4g;
==	==	==	==	==	==
*-	*-	*-	*-	*-	*-
!!chor2scor: -l 2 -s 0.6 -o %b.pmx
!!!YEC: Copyright 1994, David Huron
!!!YEC: Changes/Additions 2001 by Craig Stuart Sapp
!!!YEN: United States of America
!!!SMA: 371 Bach Chorales, edited by Ludwig Erk, C.F. Peters
!!!PDT: 1850, 1865
!!!ONB: Harmony and Root analysis done manually
